docs/assets/brands/uideck.svg

<svg width="163" height="40" viewBox="0 0 163 40" fill="none" xmlns="http://www.w3.org/2000/svg">
<g clip-path="url(#clip0_2001_9531)">
<path d="M32.9574 14.9978V26.9412C32.9574 29.368 31.7102 31.6227 29.6582 32.9129L20.0555 38.9522C19.8528 39.0812 19.5824 38.9337 19.5824 38.6941V34.4673C19.5824 33.773 19.9265 33.1279 20.504 32.7409L26.6293 28.6553C27.4833 28.0839 27.9994 27.1255 27.9994 26.0995V17.8669C27.9994 17.2095 28.3496 16.6013 28.9209 16.2695L32.0358 14.4755C32.4474 14.2421 32.9574 14.537 32.9574 15.01V14.9978Z" fill="#625DF5"/>
<path d="M32.214 11.4228L18.6486 19.2561C17.6963 19.8029 17.1127 20.8166 17.1127 21.9164V38.4184C17.1127 38.658 16.8546 38.8055 16.6519 38.6826L4.0818 31.3716C1.86391 30.0814 0.5 27.716 0.5 25.148V15.1582C0.5 12.1478 2.10352 9.3647 4.7146 7.85948L16.1542 1.24882C16.7256 0.91706 17.426 0.91706 17.9974 1.24882L20.8603 2.90149C21.4747 3.25782 21.4747 4.14252 20.8603 4.49886L7.20282 12.3813C6.25054 12.9281 5.66688 13.9418 5.66688 15.0415V24.5397C5.66688 25.6395 6.25054 26.6532 7.20282 27.2L11.7308 29.8111C11.8291 29.8663 11.9458 29.7988 11.9458 29.6882V20.2514C11.9458 18.3346 12.9656 16.5713 14.6245 15.6129L27.7475 8.03765C28.3618 7.68131 29.1237 7.71203 29.7073 8.11138L32.2693 9.86234C32.8283 10.2433 32.7976 11.0788 32.2078 11.4228H32.214Z" fill="#625DF5"/>
<path d="M47.7321 9.71687H52.1131V21.616C52.1131 22.5926 52.2467 23.4633 52.5139 24.228C52.7811 24.9835 53.1772 25.6239 53.7024 26.149C54.2368 26.6742 54.8955 27.075 55.6787 27.3514C56.4618 27.6186 57.374 27.7522 58.4151 27.7522C59.447 27.7522 60.3545 27.6186 61.1376 27.3514C61.93 27.075 62.5888 26.6742 63.1139 26.149C63.6483 25.6239 64.0491 24.9835 64.3163 24.228C64.5835 23.4633 64.7171 22.5926 64.7171 21.616V9.71687H69.0981V22.1412C69.0981 23.5601 68.8585 24.8499 68.3794 26.0108C67.9003 27.1717 67.2047 28.1668 66.2926 28.996C65.3804 29.8252 64.261 30.4655 62.9343 30.917C61.6167 31.3684 60.1103 31.5942 58.4151 31.5942C56.7198 31.5942 55.2088 31.3684 53.8821 30.917C52.5645 30.4655 51.4497 29.8252 50.5376 28.996C49.6255 28.1668 48.9298 27.1717 48.4507 26.0108C47.9716 24.8499 47.7321 23.5601 47.7321 22.1412V9.71687Z" fill="#101828"/>
<path d="M72.1247 9.71687H76.5333V31.3178H72.1247V9.71687Z" fill="#101828"/>
<path d="M78.5925 23.233C78.5925 21.9339 78.8367 20.7638 79.325 19.7227C79.8133 18.6723 80.4859 17.7786 81.3427 17.0416C82.2088 16.2953 83.2315 15.724 84.4108 15.3279C85.5993 14.9225 86.8846 14.7198 88.2666 14.7198C88.8563 14.7198 89.4367 14.7566 90.0079 14.8303C90.5884 14.904 91.1412 15.0054 91.6664 15.1344C92.2007 15.2634 92.6983 15.42 93.1589 15.6043C93.6288 15.7793 94.0434 15.9728 94.4028 16.1847V8.39014H98.4935V31.3178H94.4028V29.7837C94.0434 30.0325 93.6196 30.2674 93.1313 30.4886C92.643 30.7097 92.1178 30.9032 91.5558 31.069C90.9938 31.2348 90.4087 31.3638 89.8006 31.456C89.2018 31.5573 88.6075 31.608 88.0178 31.608C86.6358 31.608 85.3644 31.4053 84.2035 30.9999C83.0518 30.5945 82.0614 30.0233 81.2321 29.2862C80.4029 28.5491 79.7534 27.6692 79.2835 26.6466C78.8228 25.6147 78.5925 24.4768 78.5925 23.233ZM82.8906 23.233C82.8906 23.8871 83.0196 24.5044 83.2775 25.0849C83.5447 25.6653 83.9225 26.1767 84.4108 26.6189C84.9083 27.0519 85.5026 27.3975 86.1936 27.6554C86.8938 27.9042 87.6769 28.0286 88.543 28.0286C89.0958 28.0286 89.6486 27.9779 90.2014 27.8766C90.7542 27.766 91.284 27.614 91.7907 27.4205C92.3067 27.227 92.7858 26.9921 93.228 26.7157C93.6795 26.4393 94.0711 26.1306 94.4028 25.7897V20.1373C93.9881 19.8056 93.5505 19.5246 93.0898 19.2942C92.6292 19.0639 92.1593 18.875 91.6802 18.7276C91.2011 18.5802 90.7174 18.4742 90.2291 18.4097C89.7408 18.336 89.2663 18.2992 88.8056 18.2992C87.8658 18.2992 87.0274 18.4282 86.2903 18.6861C85.5625 18.9349 84.9452 19.2804 84.4384 19.7227C83.9409 20.1649 83.5585 20.6855 83.2913 21.2843C83.0242 21.8832 82.8906 22.5328 82.8906 23.233Z" fill="#101828"/>
<path d="M100.967 23.1086C100.967 22.003 101.193 20.948 101.645 19.9438C102.096 18.9303 102.746 18.0366 103.593 17.2627C104.441 16.4887 105.477 15.8714 106.703 15.4108C107.937 14.9501 109.338 14.7198 110.904 14.7198C112.461 14.7198 113.862 14.9547 115.105 15.4246C116.358 15.8853 117.418 16.521 118.284 17.3318C119.159 18.1426 119.827 19.0961 120.288 20.1925C120.758 21.2889 120.993 22.4637 120.993 23.7167C120.993 23.8733 120.988 24.0438 120.979 24.228C120.979 24.4031 120.97 24.5643 120.951 24.7117H105.528C105.703 25.2 105.984 25.6469 106.371 26.0523C106.767 26.4577 107.26 26.8078 107.85 27.1026C108.439 27.3975 109.121 27.6278 109.895 27.7936C110.669 27.9503 111.526 28.0286 112.466 28.0286C113.405 28.0286 114.341 27.9318 115.271 27.7383C116.202 27.5357 117.091 27.2823 117.938 26.9782L119.32 30.1016C118.786 30.3504 118.243 30.5715 117.69 30.765C117.146 30.9492 116.575 31.1059 115.976 31.2348C115.386 31.3546 114.764 31.4468 114.11 31.5113C113.465 31.5757 112.784 31.608 112.065 31.608C110.231 31.608 108.624 31.3869 107.242 30.9446C105.86 30.5024 104.703 29.8989 103.773 29.1342C102.842 28.3695 102.142 27.4712 101.672 26.4393C101.202 25.4074 100.967 24.2971 100.967 23.1086ZM116.653 21.5193C116.506 21.0678 116.275 20.6486 115.962 20.2616C115.658 19.8655 115.276 19.5246 114.815 19.239C114.354 18.9441 113.82 18.7138 113.212 18.5479C112.604 18.3821 111.936 18.2992 111.208 18.2992C110.434 18.2992 109.729 18.3867 109.094 18.5618C108.458 18.7368 107.9 18.9718 107.421 19.2666C106.942 19.5614 106.541 19.9023 106.219 20.2893C105.906 20.6763 105.675 21.0862 105.528 21.5193H116.653Z" fill="#101828"/>
<path d="M122.651 23.2053C122.651 22.0076 122.868 20.8928 123.301 19.8609C123.743 18.8197 124.383 17.9214 125.222 17.1659C126.069 16.4012 127.101 15.8023 128.317 15.3693C129.543 14.9363 130.939 14.7198 132.505 14.7198C133.187 14.7198 133.873 14.7612 134.564 14.8441C135.255 14.9271 135.918 15.0468 136.554 15.2035C137.199 15.3509 137.803 15.5305 138.365 15.7425C138.927 15.9452 139.415 16.1709 139.83 16.4196L137.936 19.5015C137.043 19.0869 136.195 18.7829 135.393 18.5894C134.601 18.3959 133.795 18.2992 132.975 18.2992C132.035 18.2992 131.192 18.4236 130.446 18.6723C129.699 18.9119 129.064 19.2528 128.539 19.695C128.023 20.1281 127.626 20.644 127.35 21.2429C127.083 21.8325 126.949 22.4775 126.949 23.1777C126.949 23.8779 127.092 24.5275 127.378 25.1263C127.672 25.716 128.082 26.2273 128.608 26.6604C129.142 27.0842 129.782 27.4205 130.529 27.6692C131.284 27.9088 132.123 28.0286 133.044 28.0286C134.057 28.0286 135.011 27.8858 135.905 27.6001C136.808 27.3145 137.646 26.9322 138.42 26.4531L140.313 29.535C139.825 29.8298 139.295 30.1062 138.724 30.3642C138.153 30.6129 137.54 30.8295 136.886 31.0137C136.241 31.198 135.559 31.3408 134.841 31.4422C134.131 31.5527 133.394 31.608 132.629 31.608C131.072 31.608 129.676 31.3961 128.442 30.9723C127.207 30.5484 126.161 29.9634 125.305 29.2171C124.448 28.4616 123.789 27.5725 123.328 26.5498C122.877 25.5271 122.651 24.4123 122.651 23.2053Z" fill="#101828"/>
<path d="M142.967 8.39014H147.058V21.9339L154.686 15.01H160.947L152.42 22.6387L161.486 31.3178H155.35L149.283 25.4442L147.058 27.4343V31.3178H142.967V8.39014Z" fill="#101828"/>
</g>
<defs>
<clipPath id="clip0_2001_9531">
<rect width="162" height="40" fill="white" transform="translate(0.5)"/>
</clipPath>
</defs>
</svg>

<svg xmlns="http://www.w3.org/2000/svg" width="163" height="40" fill="none"><g clip-path="url(#a)"><path fill="#625DF5" d="M32.957 14.998V26.94a7.05 7.05 0 0 1-3.299 5.972l-9.603 6.04a.309.309 0 0 1-.473-.259v-4.227c0-.694.345-1.34.922-1.726l6.125-4.086A3.08 3.08 0 0 0 28 26.1v-8.232c0-.658.35-1.266.922-1.598l3.115-1.793a.616.616 0 0 1 .921.534z"/><path fill="#625DF5" d="m32.214 11.423-13.565 7.833a3.06 3.06 0 0 0-1.536 2.66v16.502c0 .24-.258.388-.461.265l-12.57-7.311A7.2 7.2 0 0 1 .5 25.148v-9.99A8.42 8.42 0 0 1 4.715 7.86l11.44-6.61a1.83 1.83 0 0 1 1.842 0L20.86 2.9a.923.923 0 0 1 0 1.598L7.203 12.38a3.06 3.06 0 0 0-1.536 2.66v9.499c0 1.1.584 2.113 1.536 2.66l4.528 2.611a.142.142 0 0 0 .215-.123V20.25c0-1.916 1.02-3.68 2.678-4.638l13.123-7.575a1.84 1.84 0 0 1 1.96.073l2.562 1.751a.923.923 0 0 1-.061 1.56z"/><path fill="#101828" d="M47.732 9.717h4.381v11.899q0 1.465.4 2.612a5.06 5.06 0 0 0 1.19 1.921q.8.788 1.976 1.202 1.175.402 2.736.401 1.548 0 2.723-.4 1.188-.415 1.976-1.203a5 5 0 0 0 1.202-1.921q.4-1.147.401-2.612v-11.9h4.381v12.425q0 2.13-.719 3.87a8.2 8.2 0 0 1-2.086 2.985q-1.369 1.245-3.359 1.921-1.976.677-4.519.677t-4.533-.677q-1.976-.678-3.344-1.921a8.2 8.2 0 0 1-2.087-2.985q-.72-1.74-.719-3.87zm24.393 0h4.408v21.6h-4.408zm6.468 13.516q0-1.95.732-3.51a7.9 7.9 0 0 1 2.018-2.681q1.299-1.12 3.068-1.714 1.783-.608 3.856-.608.885 0 1.74.11.871.11 1.66.304.8.194 1.492.47.704.263 1.244.58V8.39h4.09v22.928h-4.09v-1.534q-.54.372-1.272.705-.732.33-1.575.58t-1.755.387q-.9.152-1.783.152-2.073 0-3.814-.608-1.728-.608-2.972-1.714a7.9 7.9 0 0 1-1.948-2.64q-.692-1.547-.692-3.413m4.298 0q0 .98.386 1.852.401.87 1.134 1.534a5.7 5.7 0 0 0 1.783 1.036q1.05.375 2.349.374.83 0 1.658-.152a10 10 0 0 0 1.59-.456 8 8 0 0 0 1.437-.705 6 6 0 0 0 1.175-.926v-5.653a7.4 7.4 0 0 0-1.313-.843q-.69-.345-1.41-.566a9 9 0 0 0-1.45-.318 9.5 9.5 0 0 0-1.424-.11q-1.41 0-2.516.386-1.092.373-1.852 1.037-.746.664-1.147 1.561a4.7 4.7 0 0 0-.4 1.949m18.077-.124q0-1.659.678-3.165a8 8 0 0 1 1.948-2.681q1.271-1.162 3.11-1.852 1.851-.69 4.201-.691 2.336 0 4.201.705 1.88.69 3.179 1.907a8.2 8.2 0 0 1 2.004 2.86 8.85 8.85 0 0 1 .705 3.525q0 .235-.014.511 0 .262-.028.484h-15.423q.263.732.843 1.34.594.609 1.479 1.05a8.6 8.6 0 0 0 2.045.692q1.161.235 2.571.235t2.805-.29q1.396-.305 2.667-.76l1.382 3.123q-.8.373-1.63.663a16 16 0 0 1-1.714.47q-.885.18-1.866.276-.967.097-2.045.097-2.75 0-4.823-.663-2.074-.664-3.469-1.81-1.396-1.148-2.101-2.696a7.9 7.9 0 0 1-.705-3.33m15.686-1.59a3.9 3.9 0 0 0-.691-1.257 4.2 4.2 0 0 0-1.147-1.023 5.8 5.8 0 0 0-1.603-.691 7.6 7.6 0 0 0-2.004-.249q-1.161 0-2.114.263a6.4 6.4 0 0 0-1.673.705q-.719.441-1.202 1.022a4 4 0 0 0-.691 1.23zm5.998 1.686q0-1.796.65-3.344a7.6 7.6 0 0 1 1.921-2.695q1.27-1.148 3.095-1.797 1.839-.65 4.188-.65a17.3 17.3 0 0 1 4.049.485q.968.22 1.811.538a8.4 8.4 0 0 1 1.465.678l-1.894 3.081a13.7 13.7 0 0 0-2.543-.912 10.2 10.2 0 0 0-2.418-.29q-1.41 0-2.529.373-1.12.36-1.907 1.023a4.4 4.4 0 0 0-1.189 1.548 4.6 4.6 0 0 0-.401 1.935q0 1.05.429 1.948.441.885 1.23 1.534.8.636 1.921 1.01 1.133.359 2.515.359a9.4 9.4 0 0 0 2.861-.429 11 11 0 0 0 2.515-1.147l1.893 3.082q-.732.442-1.589.83-.857.373-1.838.649-.968.276-2.045.428-1.065.166-2.212.166-2.336 0-4.187-.636-1.853-.636-3.137-1.755a7.8 7.8 0 0 1-1.977-2.667q-.677-1.535-.677-3.345M142.967 8.39h4.091v13.544l7.628-6.924h6.261l-8.527 7.629 9.066 8.679h-6.136l-6.067-5.874-2.225 1.99v3.884h-4.091z"/></g><defs><clipPath id="a"><path fill="#fff" d="M.5 0h162v40H.5z"/></clipPath></defs></svg>
